X: 12
I: linebreak $
T: Quen Quer Que
P: (AB) x 8 AA
C: 13th Century Spanish for choreography by Master Sion Andreas o Wynedd
C: 
N: 
N: 
K: G mixolydian
M: 4/4
L: 1/8
 |: "^A""^Chorus:"d4 B4 | G4 A2B2 | c4 A2B2 | d4 d4 | e4 c4 | d4 e2f2 | 
g4 f2e2 | d2c2 B2c2 | A8 | A4 B2c2 | d4 d4 | c2B2 A2B2 | 
G4 F4 | A4 B2A2 | G4 A2B2 | d2c2 B2A2 | G2F2 G2A2 | G8 || 
"^B""^Verse:"B4 c4 | d4 e2d2 | c2B2 B2A2 | G4 F4 | A4 B2A2 | G4 A2B2 | 
d2c2 B2A2 | B2A2 G2F2 | G8 | B4 c4 | d4 e2d2 | c2B2 B2A2 | 
G4 F4 | A4 B2A2 | G4 A2B2 | d2c2 B2A2 | B2A2 G2F2 | G8 | 
d4 B4 | G4 A2B2 | c4 A2B2 | d4 d4 | e4 c4 | d4 e2f2 | 
g4 f2e2 | d2c2 B2c2 | A8 | A4 B2c2 | d4 d4 | c2B2 A2B2 | 
G4 F4 | A4 B2A2 | G4 A2B2 | d2c2 B2A2 | G2F2 G2A2 | G8 :| 


